img/icon-google-drive.svg

<svg fill="none" height="24" viewBox="0 0 24 24" width="24" xmlns="http://www.w3.org/2000/svg"><g fill="#fff"><path d="m7.71 3.5-6.56 11.5 3.43 6 6.55-11.5z"/><path d="m22.85 15-6.56-11.5h-7.16l6.56 11.5z"/><path d="m8.13 16-3.42 6h14.14l3.42-6z" fill-opacity=".8"/></g></svg>

<svg width="24" height="24" viewBox="0 0 24 24" fill="none" xmlns="http://www.w3.org/2000/svg">
<path d="M7.71 3.5L1.15 15L4.58 21L11.13 9.5L7.71 3.5Z" fill="white"/>
<path d="M22.85 15L16.29 3.5H9.13L15.69 15H22.85Z" fill="white"/>
<path d="M8.13 16L4.71 22H18.85L22.27 16H8.13Z" fill="white" fill-opacity="0.8"/>
</svg>
